dist/assets/img/icons/circle.svg

<svg width="76" height="76" viewBox="0 0 76 76" fill="none" xmlns="http://www.w3.org/2000/svg">
<g filter="url(#filter0_b_1_32)">
<circle cx="38" cy="38" r="38" fill="white" fill-opacity="0.75"/>
</g>
<path d="M52.6493 40.8427C52.5216 40.7744 52.3598 40.5951 52.3598 40.467C52.3257 38.7339 52.3343 37.0009 52.3087 35.2592C52.3087 34.9007 52.4364 34.6702 52.7515 34.4909C54.182 33.6628 54.9824 31.887 54.6673 30.2137C54.1139 27.3024 50.8782 25.8852 48.3748 27.4903C46.3227 26.3121 44.3047 25.1425 42.2781 23.9814C42.0056 23.8277 41.8609 23.6228 41.7927 23.2984C41.3159 21.0104 39.1446 19.6274 36.9477 20.0884C35.1851 20.4555 34.0697 21.5824 33.7035 23.4009C33.6525 23.6484 33.6269 23.8875 33.3374 24.0582C31.4301 25.1339 29.5312 26.2267 27.6409 27.3366C27.4025 27.4817 27.2322 27.4817 26.9853 27.3793C25.1545 26.6109 23.0343 27.2683 21.9529 28.8989C20.7438 30.7174 21.1185 33.3896 23.128 34.6702C23.3409 34.8068 23.4175 34.9604 23.4175 35.2166C23.4005 36.8984 23.3919 38.5717 23.4175 40.2536C23.426 40.6634 23.2898 40.8683 22.9492 41.0817C21.4165 42.0635 20.8119 43.5575 21.0503 45.1882C21.442 47.8091 24.0731 49.3715 26.551 48.4921C26.6532 48.458 26.815 48.4751 26.9171 48.5263C29.0118 49.7301 31.1065 50.9424 33.2097 52.1376C33.5332 52.3254 33.678 52.5218 33.6439 52.9059C33.6184 53.1535 33.678 53.4096 33.7206 53.6572C34.1293 55.9709 36.4283 57.3795 38.6082 56.91C40.5836 56.4831 41.912 54.7927 41.8949 52.8547C41.8949 52.6071 41.9886 52.4791 42.1929 52.3596C44.4153 51.079 46.6207 49.7898 48.8431 48.5263C48.9964 48.4409 49.2433 48.4409 49.4221 48.4921C50.1033 48.6629 50.7675 48.7909 51.4998 48.68C53.4753 48.3726 54.9483 46.6993 54.9994 44.7186C55.025 42.9599 54.1905 41.6708 52.6493 40.8427ZM49.1156 40.578C49.1156 40.689 49.0134 40.8341 48.9198 40.8939C47.7873 41.5427 47.0124 42.4818 46.8081 43.7881C46.7144 44.3771 46.7825 45.0004 46.8506 45.598C46.8847 45.8626 46.8506 45.9651 46.6378 46.0931C44.9092 47.0835 43.1807 48.0909 41.4607 49.0898C41.1201 49.2861 40.7795 49.4825 40.4474 49.6788C38.821 48.3811 36.7689 48.3555 35.1766 49.5935C33.1416 48.4153 31.098 47.2371 29.0374 46.0419C29.4546 44.804 29.3865 43.6088 28.7138 42.4648C28.288 41.7391 27.675 41.2012 26.9342 40.8256C26.7043 40.7061 26.6447 40.578 26.6447 40.3475C26.6532 38.7425 26.6532 37.1289 26.6447 35.5239C26.6447 35.2507 26.7383 35.1397 26.9767 35.0373C28.6286 34.3116 29.5823 32.8261 29.5397 31.0674C29.5312 30.8027 29.4461 30.5381 29.4376 30.2734C29.429 30.1539 29.4886 29.9661 29.5823 29.9149C31.2683 28.9245 32.9713 27.9513 34.6572 26.978C36.6923 28.8818 39.1616 28.6684 40.9413 26.8756C42.8145 27.9598 44.6793 29.044 46.5356 30.1112C46.2801 31.9382 46.9187 33.8079 48.9368 34.7555C49.0305 34.7982 49.1241 34.969 49.1241 35.0714C49.1241 36.9155 49.1241 38.751 49.1156 40.578ZM42.1759 34.7214C40.9923 34.0384 39.8258 33.3469 38.6422 32.6553C38.1569 32.3736 37.6545 32.3395 37.1606 32.6297C35.9089 33.3554 34.6572 34.0811 33.414 34.8238C32.9798 35.08 32.7754 35.4897 32.7754 35.9935C32.7669 36.7021 32.7754 37.4192 32.7754 38.1278C32.7754 38.8364 32.7839 39.5535 32.7754 40.2621C32.7669 40.7914 32.9968 41.2183 33.4311 41.4744C34.6743 42.2257 35.9259 42.9343 37.1862 43.6515C37.663 43.9161 38.1654 43.899 38.6337 43.6258C39.8428 42.9343 41.0434 42.2257 42.244 41.5257C42.7549 41.2268 42.9934 40.7744 42.9934 40.1938C42.9934 38.8449 42.9934 37.496 42.9934 36.1386C43.0019 35.4983 42.7294 35.0373 42.1759 34.7214Z" fill="#00A7B5"/>
<defs>
<filter id="filter0_b_1_32" x="-15" y="-15" width="106" height="106" filterUnits="userSpaceOnUse" color-interpolation-filters="sRGB">
<feFlood flood-opacity="0" result="BackgroundImageFix"/>
<feGaussianBlur in="BackgroundImageFix" stdDeviation="7.5"/>
<feComposite in2="SourceAlpha" operator="in" result="effect1_backgroundBlur_1_32"/>
<feBlend mode="normal" in="SourceGraphic" in2="effect1_backgroundBlur_1_32" result="shape"/>
</filter>
</defs>
</svg>

<svg width="76" height="76" fill="none" xmlns="http://www.w3.org/2000/svg"><g filter="url(#filter0_b_1_32)"><circle cx="38" cy="38" r="38" fill="#fff" fill-opacity=".75"/></g><path d="M52.65 40.843c-.128-.069-.29-.248-.29-.376-.034-1.733-.026-3.466-.051-5.208 0-.358.127-.589.443-.768 1.43-.828 2.23-2.604 1.915-4.277-.553-2.912-3.789-4.329-6.292-2.724-2.052-1.178-4.07-2.348-6.097-3.509-.272-.153-.417-.358-.485-.683-.477-2.288-2.648-3.67-4.845-3.21-1.763.367-2.878 1.494-3.245 3.313-.05.247-.076.486-.366.657a377.731 377.731 0 00-5.696 3.279c-.238.145-.409.145-.656.042a4.136 4.136 0 00-5.032 1.52c-1.21 1.818-.834 4.49 1.175 5.771.213.137.29.29.29.547a198.532 198.532 0 000 5.037c.008.41-.128.614-.469.828-1.533.981-2.137 2.475-1.899 4.106a4.132 4.132 0 005.501 3.304.546.546 0 01.366.034c2.095 1.204 4.19 2.416 6.293 3.612.323.187.468.384.434.768-.026.248.034.504.077.751.408 2.314 2.707 3.723 4.887 3.253 1.976-.427 3.304-2.117 3.287-4.055 0-.248.094-.376.298-.495 2.222-1.281 4.428-2.57 6.65-3.834.153-.085.4-.085.58-.034.68.17 1.344.299 2.077.188a4.13 4.13 0 003.5-3.961c.025-1.76-.81-3.048-2.35-3.876zm-3.534-.265c0 .111-.103.256-.196.316-1.133.649-1.908 1.588-2.112 2.894-.094.59-.026 1.212.043 1.81.034.265 0 .367-.213.495-1.729.99-3.457 1.998-5.177 2.997-.34.196-.681.392-1.014.589-1.626-1.298-3.678-1.324-5.27-.086-2.035-1.178-4.079-2.356-6.14-3.551.418-1.238.35-2.433-.323-3.577-.426-.726-1.039-1.264-1.78-1.64-.23-.119-.29-.247-.29-.478.01-1.605.01-3.218 0-4.823 0-.273.094-.384.333-.487 1.652-.725 2.605-2.21 2.563-3.97-.009-.264-.094-.529-.102-.794-.009-.12.05-.307.144-.358 1.686-.99 3.39-1.964 5.075-2.937 2.035 1.904 4.505 1.69 6.284-.102 1.873 1.084 3.738 2.168 5.595 3.235-.256 1.827.383 3.697 2.4 4.644.095.043.188.214.188.316 0 1.845 0 3.68-.008 5.507zm-6.94-5.857c-1.184-.683-2.35-1.374-3.534-2.066-.485-.281-.988-.316-1.481-.025a312.968 312.968 0 00-3.747 2.194c-.434.256-.639.666-.639 1.17-.008.708 0 1.425 0 2.134 0 .708.009 1.425 0 2.134-.008.53.222.956.656 1.212 1.243.752 2.495 1.46 3.755 2.178.477.264.98.247 1.448-.026 1.209-.692 2.41-1.4 3.61-2.1.51-.3.75-.752.75-1.332v-4.055c.008-.64-.265-1.102-.818-1.418z" fill="#00A7B5"/><defs><filter id="filter0_b_1_32" x="-15" y="-15" width="106" height="106" filterUnits="userSpaceOnUse" color-interpolation-filters="sRGB"><feFlood flood-opacity="0" result="BackgroundImageFix"/><feGaussianBlur in="BackgroundImageFix" stdDeviation="7.5"/><feComposite in2="SourceAlpha" operator="in" result="effect1_backgroundBlur_1_32"/><feBlend in="SourceGraphic" in2="effect1_backgroundBlur_1_32" result="shape"/></filter></defs></svg>
